svg/design/scale_fill.svg

<?xml version="1.0" encoding="UTF-8"?>
<svg width="24px" height="24px" viewBox="0 0 24 24" version="1.1" xmlns="http://www.w3.org/2000/svg" xmlns:xlink="http://www.w3.org/1999/xlink">
    <title>scale_fill</title>
    <g id="页面-1" stroke="none" stroke-width="1" fill="none" fill-rule="evenodd">
        <g id="Design" transform="translate(-192.000000, -144.000000)" fill-rule="nonzero">
            <g id="scale_fill" transform="translate(192.000000, 144.000000)">
                 <path d="M24,0 L24,24 L0,24 L0,0 L24,0 Z M12.5934901,23.257841 L12.5819402,23.2595131 L12.5108777,23.2950439 L12.4918791,23.2987469 L12.4918791,23.2987469 L12.4767152,23.2950439 L12.4056548,23.2595131 C12.3958229,23.2563662 12.3870493,23.2590235 12.3821421,23.2649074 L12.3780323,23.275831 L12.360941,23.7031097 L12.3658947,23.7234994 L12.3769048,23.7357139 L12.4804777,23.8096931 L12.4953491,23.8136134 L12.4953491,23.8136134 L12.5071152,23.8096931 L12.6106902,23.7357139 L12.6232938,23.7196733 L12.6232938,23.7196733 L12.6266527,23.7031097 L12.609561,23.275831 C12.6075724,23.2657013 12.6010112,23.2592993 12.5934901,23.257841 L12.5934901,23.257841 Z M12.8583906,23.1452862 L12.8445485,23.1473072 L12.6598443,23.2396597 L12.6498822,23.2499052 L12.6498822,23.2499052 L12.6471943,23.2611114 L12.6650943,23.6906389 L12.6699349,23.7034178 L12.6699349,23.7034178 L12.678386,23.7104931 L12.8793402,23.8032389 C12.8914285,23.8068999 12.9022333,23.8029875 12.9078286,23.7952264 L12.9118235,23.7811639 L12.8776777,23.1665331 C12.8752882,23.1545897 12.8674102,23.1470016 12.8583906,23.1452862 L12.8583906,23.1452862 Z M12.1430473,23.1473072 C12.1332178,23.1423925 12.1221763,23.1452606 12.1156365,23.1525954 L12.1099173,23.1665331 L12.0757714,23.7811639 C12.0751323,23.7926639 12.0828099,23.8018602 12.0926481,23.8045676 L12.108256,23.8032389 L12.3092106,23.7104931 L12.3186497,23.7024347 L12.3186497,23.7024347 L12.3225043,23.6906389 L12.340401,23.2611114 L12.337245,23.2485176 L12.337245,23.2485176 L12.3277531,23.2396597 L12.1430473,23.1473072 Z" id="MingCute" fill-rule="nonzero"></path>
                <path d="M13.1707,3 C13.0602,3.31278 13,3.64936 13,4 C13,4.76669 13.2876,5.46621 13.7608,5.99655 L11.9965,7.76081 C11.4662,7.2876 10.7667,7 10,7 C8.34315,7 7,8.34315 7,10 L7,13.75 C7,15.5449 8.45507,17 10.25,17 L14,17 C15.6569,17 17,15.6569 17,14 C17,13.2333 16.7124,12.5338 16.2392,12.0035 L18.0035,10.2392 C18.5338,10.7124 19.2333,11 20,11 C20.3506,11 20.6872,10.9398 21,10.8293 L21,19 C21,20.1046 20.1046,21 19,21 L5,21 C3.89543,21 3,20.1046 3,19 L3,5 C3,3.89543 3.89543,3 5,3 L13.1707,3 Z M19.75,3 C20.4404,3 21,3.55964 21,4.25 L21,8 C21,8.55228 20.5523,9 20,9 C19.4477,9 19,8.55228 19,8 L19,6.41421 L12.4142,13 L14,13 C14.5523,13 15,13.4477 15,14 C15,14.5523 14.5523,15 14,15 L10.25,15 C9.55964,15 9,14.4404 9,13.75 L9,10 C9,9.44772 9.44772,9 10,9 C10.5523,9 11,9.44772 11,10 L11,11.5858 L17.5858,5 L16,5 C15.4477,5 15,4.55228 15,4 C15,3.44772 15.4477,3 16,3 L19.75,3 Z" id="形状" fill="#09244B"></path>
            </g>
        </g>
    </g>
</svg>

<svg xmlns="http://www.w3.org/2000/svg" width="24" height="24"><g fill="none" fill-rule="nonzero"><path d="M24 0v24H0V0h24ZM12.593 23.258l-.011.002-.071.035-.02.004-.014-.004-.071-.035c-.01-.004-.019-.001-.024.005l-.004.01-.017.428.005.02.01.013.104.074.015.004.012-.004.104-.074.012-.016.004-.017-.017-.427c-.002-.01-.009-.017-.017-.018Zm.265-.113-.013.002-.185.093-.01.01-.003.011.018.43.005.012.008.007.201.093c.012.004.023 0 .029-.008l.004-.014-.034-.614c-.003-.012-.01-.02-.02-.022Zm-.715.002a.023.023 0 0 0-.027.006l-.006.014-.034.614c0 .012.007.02.017.024l.015-.002.201-.093.01-.008.004-.011.017-.43-.003-.012-.01-.01-.184-.092Z"/><path fill="#09244B" d="M13.17 3c-.11.313-.17.65-.17 1 0 .767.288 1.466.76 1.997L11.997 7.76A3 3 0 0 0 7 10v3.749A3.25 3.25 0 0 0 10.25 17H14a3 3 0 0 0 2.24-4.996l1.764-1.765a2.997 2.997 0 0 0 2.997.59L20.999 19a2 2 0 0 1-2 2H5a2 2 0 0 1-2-2V5a2 2 0 0 1 2-2h8.17Zm6.58 0c.69 0 1.25.56 1.25 1.25V8a1 1 0 1 1-2 0V6.414L12.414 13H14a1 1 0 1 1 0 2h-3.75C9.56 15 9 14.44 9 13.75V10a1 1 0 0 1 2 0v1.586L17.586 5H16a1 1 0 1 1 0-2h3.75Z"/></g></svg>
